imgs/logo-black.svg

<svg width="156" height="41" viewBox="0 0 156 41" fill="none" xmlns="http://www.w3.org/2000/svg">
<path d="M38.7775 37V5.86H51.1254C53.2302 5.86 54.953 6.28529 56.2938 7.13587C57.6489 7.97204 58.6509 9.04608 59.2996 10.358C59.9628 11.6699 60.2944 13.0251 60.2944 14.4235C60.2944 16.1391 59.8835 17.5952 59.0618 18.7917C58.2544 19.9883 57.1515 20.7957 55.7531 21.2137V20.1325C57.7138 20.5794 59.1987 21.5093 60.2079 22.9221C61.2315 24.335 61.7433 25.9424 61.7433 27.7445C61.7433 29.5898 61.39 31.2045 60.6836 32.5885C59.9772 33.9725 58.9248 35.0537 57.5264 35.8322C56.1424 36.6107 54.4268 37 52.3796 37H38.7775ZM44.054 32.0911H51.7309C52.6391 32.0911 53.4537 31.9109 54.1745 31.5505C54.8953 31.1757 55.4576 30.6567 55.8613 29.9935C56.2793 29.3159 56.4884 28.5158 56.4884 27.5931C56.4884 26.757 56.3082 26.0073 55.9478 25.3441C55.5873 24.681 55.0611 24.1547 54.3691 23.7655C53.6771 23.3618 52.8482 23.16 51.8823 23.16H44.054V32.0911ZM44.054 18.2944H51.0605C51.8102 18.2944 52.4805 18.1502 53.0716 17.8619C53.6627 17.5735 54.1313 17.1482 54.4773 16.586C54.8233 16.0237 54.9963 15.3317 54.9963 14.51C54.9963 13.4287 54.6503 12.5277 53.9583 11.8069C53.2663 11.086 52.3003 10.7256 51.0605 10.7256H44.054V18.2944ZM76.3773 37.6488C74.0418 37.6488 72.0018 37.1225 70.2574 36.0701C68.513 35.0177 67.1578 33.5688 66.1919 31.7235C65.2404 29.8637 64.7647 27.7301 64.7647 25.3225C64.7647 22.8717 65.2548 20.7236 66.2352 18.8782C67.2155 17.0329 68.5779 15.5912 70.3223 14.5532C72.0667 13.5152 74.085 12.9962 76.3773 12.9962C78.7272 12.9962 80.7744 13.5225 82.5188 14.5749C84.2632 15.6273 85.6184 17.0834 86.5843 18.9431C87.5502 20.7885 88.0332 22.9149 88.0332 25.3225C88.0332 27.7445 87.543 29.8854 86.5627 31.7451C85.5968 33.5905 84.2416 35.0393 82.4972 36.0917C80.7528 37.1297 78.7128 37.6488 76.3773 37.6488ZM76.3773 32.7615C78.4533 32.7615 79.9959 32.0695 81.005 30.6855C82.0142 29.3015 82.5188 27.5138 82.5188 25.3225C82.5188 23.0591 82.007 21.257 80.9834 19.9162C79.9598 18.5611 78.4245 17.8835 76.3773 17.8835C74.9789 17.8835 73.8255 18.2007 72.9173 18.835C72.0235 19.4549 71.3603 20.3271 70.9278 21.4516C70.4953 22.5617 70.279 23.852 70.279 25.3225C70.279 27.5859 70.7908 29.3952 71.8144 30.7504C72.8524 32.0911 74.3734 32.7615 76.3773 32.7615ZM93.2303 37V5.21125H98.4419V37H93.2303ZM114.283 37.6488C112.135 37.6488 110.261 37.1081 108.661 36.0269C107.06 34.9456 105.821 33.4751 104.941 31.6154C104.062 29.7556 103.622 27.658 103.622 25.3225C103.622 22.9582 104.062 20.8533 104.941 19.008C105.835 17.1482 107.097 15.685 108.726 14.6181C110.355 13.5369 112.272 12.9962 114.478 12.9962C116.698 12.9962 118.558 13.5369 120.057 14.6181C121.571 15.685 122.717 17.1482 123.495 19.008C124.274 20.8677 124.663 22.9726 124.663 25.3225C124.663 27.6436 124.274 29.7412 123.495 31.6154C122.717 33.4751 121.556 34.9456 120.014 36.0269C118.471 37.1081 116.561 37.6488 114.283 37.6488ZM115.083 32.9777C116.482 32.9777 117.606 32.6606 118.457 32.0262C119.322 31.3775 119.949 30.4765 120.338 29.3231C120.742 28.1698 120.944 26.8362 120.944 25.3225C120.944 23.7943 120.742 22.4608 120.338 21.3219C119.949 20.1685 119.336 19.2747 118.5 18.6404C117.664 17.9916 116.583 17.6672 115.256 17.6672C113.858 17.6672 112.705 18.0132 111.796 18.7052C110.888 19.3828 110.218 20.3055 109.785 21.4732C109.353 22.6266 109.136 23.9097 109.136 25.3225C109.136 26.7497 109.346 28.0472 109.764 29.215C110.196 30.3683 110.852 31.2838 111.731 31.9614C112.611 32.639 113.728 32.9777 115.083 32.9777ZM120.944 37V20.6082H120.295V5.86H125.55V37H120.944ZM141.928 37.6488C139.593 37.6488 137.553 37.1225 135.808 36.0701C134.064 35.0177 132.709 33.5688 131.743 31.7235C130.791 29.8637 130.315 27.7301 130.315 25.3225C130.315 22.8717 130.806 20.7236 131.786 18.8782C132.766 17.0329 134.129 15.5912 135.873 14.5532C137.617 13.5152 139.636 12.9962 141.928 12.9962C144.278 12.9962 146.325 13.5225 148.07 14.5749C149.814 15.6273 151.169 17.0834 152.135 18.9431C153.101 20.7885 153.584 22.9149 153.584 25.3225C153.584 27.7445 153.094 29.8854 152.113 31.7451C151.148 33.5905 149.792 35.0393 148.048 36.0917C146.304 37.1297 144.264 37.6488 141.928 37.6488ZM141.928 32.7615C144.004 32.7615 145.547 32.0695 146.556 30.6855C147.565 29.3015 148.07 27.5138 148.07 25.3225C148.07 23.0591 147.558 21.257 146.534 19.9162C145.511 18.5611 143.975 17.8835 141.928 17.8835C140.53 17.8835 139.376 18.2007 138.468 18.835C137.574 19.4549 136.911 20.3271 136.479 21.4516C136.046 22.5617 135.83 23.852 135.83 25.3225C135.83 27.5859 136.342 29.3952 137.365 30.7504C138.403 32.0911 139.924 32.7615 141.928 32.7615Z" fill="#0A2640"/>
<path d="M0 20.5H16.2851C21.0522 20.5 24.9167 24.3645 24.9167 29.1316C24.9167 33.8987 21.0522 37.7632 16.2851 37.7632H0V20.5Z" fill="#0A2640"/>
<path d="M0 5.39453H10.8597C14.435 5.39453 17.3333 8.2929 17.3333 11.8682C17.3333 15.4435 14.435 18.3419 10.8597 18.3419H0V5.39453Z" fill="#0A2640"/>
</svg>

<svg xmlns="http://www.w3.org/2000/svg" width="156" height="41" fill="#0a2640" xmlns:v="https://vecta.io/nano"><path d="M38.778 37V5.86h12.348c2.105 0 3.828.425 5.168 1.276 1.355.836 2.357 1.91 3.006 3.222.663 1.312.995 2.667.995 4.066 0 1.716-.411 3.172-1.233 4.368a5.91 5.91 0 0 1-3.309 2.422v-1.081c1.961.447 3.446 1.377 4.455 2.79 1.024 1.413 1.535 3.02 1.535 4.822 0 1.845-.353 3.46-1.06 4.844s-1.759 2.465-3.157 3.244c-1.384.779-3.1 1.168-5.147 1.168H38.778zm5.276-4.909h7.677c.908 0 1.723-.18 2.444-.541.721-.375 1.283-.894 1.687-1.557.418-.678.627-1.478.627-2.4 0-.836-.18-1.586-.541-2.249a3.96 3.96 0 0 0-1.579-1.579c-.692-.404-1.521-.605-2.487-.605h-7.828v8.931zm0-13.797h7.006c.75 0 1.42-.144 2.011-.433s1.06-.714 1.406-1.276.519-1.254.519-2.076c0-1.081-.346-1.982-1.038-2.703s-1.658-1.081-2.898-1.081h-7.006v7.569zm32.323 19.354c-2.336 0-4.376-.526-6.12-1.579s-3.1-2.501-4.065-4.347c-.952-1.86-1.427-3.993-1.427-6.401 0-2.451.49-4.599 1.471-6.444s2.343-3.287 4.087-4.325 3.763-1.557 6.055-1.557c2.35 0 4.397.526 6.141 1.579s3.1 2.509 4.066 4.368c.966 1.845 1.449 3.972 1.449 6.379 0 2.422-.49 4.563-1.47 6.423a10.85 10.85 0 0 1-4.065 4.347c-1.744 1.038-3.784 1.557-6.12 1.557zm0-4.887c2.076 0 3.619-.692 4.628-2.076s1.514-3.172 1.514-5.363c0-2.263-.512-4.065-1.535-5.406-1.024-1.355-2.559-2.033-4.606-2.033-1.398 0-2.552.317-3.46.951-.894.62-1.557 1.492-1.989 2.617-.433 1.11-.649 2.4-.649 3.871 0 2.263.512 4.073 1.535 5.428 1.038 1.341 2.559 2.011 4.563 2.011zM93.23 37V5.211h5.212V37H93.23zm21.053.649c-2.148 0-4.022-.541-5.622-1.622s-2.84-2.552-3.72-4.411-1.319-3.957-1.319-6.293c0-2.364.44-4.469 1.319-6.315.894-1.86 2.156-3.323 3.785-4.39 1.629-1.081 3.546-1.622 5.752-1.622 2.22 0 4.08.541 5.579 1.622 1.514 1.067 2.66 2.53 3.438 4.39s1.168 3.965 1.168 6.315c0 2.321-.389 4.419-1.168 6.293-.778 1.86-1.939 3.33-3.481 4.411s-3.453 1.622-5.731 1.622zm.8-4.671c1.399 0 2.523-.317 3.374-.951.865-.649 1.492-1.55 1.881-2.703.404-1.153.606-2.487.606-4.001 0-1.528-.202-2.862-.606-4.001-.389-1.153-1.002-2.047-1.838-2.681-.836-.649-1.917-.973-3.244-.973-1.398 0-2.551.346-3.46 1.038-.908.678-1.578 1.6-2.011 2.768-.432 1.153-.649 2.437-.649 3.849 0 1.427.21 2.725.628 3.892.432 1.153 1.088 2.069 1.967 2.746s1.997 1.016 3.352 1.016zM120.944 37V20.608h-.649V5.86h5.255V37h-4.606zm20.984.649c-2.335 0-4.375-.526-6.12-1.579s-3.099-2.501-4.065-4.347c-.952-1.86-1.428-3.993-1.428-6.401 0-2.451.491-4.599 1.471-6.444s2.343-3.287 4.087-4.325 3.763-1.557 6.055-1.557c2.35 0 4.397.526 6.142 1.579s3.099 2.509 4.065 4.368c.966 1.845 1.449 3.972 1.449 6.379 0 2.422-.49 4.563-1.471 6.423-.965 1.845-2.321 3.294-4.065 4.347-1.744 1.038-3.784 1.557-6.12 1.557zm0-4.887c2.076 0 3.619-.692 4.628-2.076s1.514-3.172 1.514-5.363c0-2.263-.512-4.065-1.536-5.406-1.023-1.355-2.559-2.033-4.606-2.033-1.398 0-2.552.317-3.46.951-.894.62-1.557 1.492-1.989 2.617-.433 1.11-.649 2.4-.649 3.871 0 2.263.512 4.073 1.535 5.428 1.038 1.341 2.559 2.011 4.563 2.011zM0 20.5h16.285c4.767 0 8.632 3.864 8.632 8.632s-3.864 8.632-8.632 8.632H0V20.5zM0 5.395h10.86c3.575 0 6.474 2.898 6.474 6.474s-2.898 6.474-6.474 6.474H0V5.395z"/></svg>
